X:1
T:James Gibb editions
T:Benedictus Deus - Caldara
T:#
%%score [ 1 2 ] { ( 3 4 ) | 5 }
L:1/8
Q:1/4=96
M:3/4
K:G
V:1 treble nm="Alto I"
V:2 treble nm="Alto II"
V:3 treble nm="Organ"
V:4 treble 
V:5 bass 
V:1
"^andante""^Antonio Caldara\n(c.1670-1736)""^Benedictus Deus" z2 (BA) (GF) | G2 ^D4 | (E2 F>GA>B | %3
w: Be\- * ne\- *|di- ctus|De\- * * * *|
 G2) F4 | z2 z2 B2 | (G>F GBAG | A2) D2 A2 | B4 A2 | A4 A2 | (BAGFED | ^C3 GFE | D2) F2 (B2- | %12
w: * us|et|Pa\- * * * * *|* ter o-|mni- po-|tens, et|Pa\- * * * * *||* ter o\-|
 B^G) ^A3 B | B4 z2 | z2 (BA) (GF) | G2 ^D4 | E2 B,2 z2 | z2 z2 B2 | (G>F E2 A2 | F>E D2 G2- | %20
w: * * mni- po-|tens,|be\- * ne\- *|di- ctus|De- us|et|Pa\- * * *||
 G2 F>E F2 | ^D2) E2 E2- | E2 E2 ^D2 | E4 z2 | G6 | A6 | B2 A2 G2 | F2 G4 | A2 D4 | z6 | z6 | %31
w: |* ter o\-|* mni- po-|tens,|Pa-|ter|mi- se- ri-|cor- dì-|a- rum|||
 z2 z2 B2 | (A2 G2 F2 | G6- | G2 F2 F2 | F2 E2 E2 | E2 D4 | A3 F GA | B2 AGGF | F3 GGA | A2 GFFE | %41
w: et|De\- * *||* us, et|De- us to-|ti- us|con- so- la- ti-|o\- * * * *|||
 E2 ABAG | F2 E4) | D4 z2 | z6 | z6 | z6 | z6 | z6 | z6 | z6 | G6 | ^G6 | A2 B2 c2 | B2 A4 | %55
w: ||nis,||||||||Pa-|ter|mi- se- ri-|cor- di-|
 (^G3 F) E2 | z2 z2 B2 | (A2 ^G2 F2 | ^G2) G2 A2 | A2 ^G2 G2 | A2 A2 B2 | E2 E2 cB | A^G (A4- | %63
w: a\- * rum|et|De\- * *|* us to-|ti- us, et|De- us to-|ti- us con- so-|la- ti- o\-|
 A2 ^G4) | A2 c2 A2 | !courtesy!^F2 D2 z2 | z6 | G2 A2 B2 | c2 B4 | B2 A4 | z6 | G2 A2 B2 | %72
w: |nis, Pa- ter,|Pa- ter||mi- se- ri-|cor- di-|a- rum||et De- us,|
 E2 E2 E2 | E2 D4 | z6 | (cB) (AG) FE | (F3 G A2- | A2 G>F G2- | G2 F4) || %79
w: De- us to-|ti- us||con\- * so\- * la- ti-|o\- * *|||
[M:4/4]"^allegro" G2 z G FEFD | E2 z A ADGG | F3 ^G AE (A2- | A2 =G2 F2 B2- | %83
w: nis, qui con- so- la- tur|nos in o- mni tri- bu-|la- ti- o- ne no\-||
[M:4/4] B2 ^A2) B2 z B | AGAF G2 z2 | F2 z F GGGG | G2 G2 G2 FB | BEAA G3 G | F2 ^G2 (AE A2- | %89
w: * * stra, qui|con- so- la- tur nos,|nos in o- mni tri- bu-|la- ti- o- ne, in|o- mni tri- bu- la- ti-|o- ne no\- * *|
 A2 ^G2) A2 z2 | z2 z E D^CDB, | ^C2 z F FB,EE | D2 ^D2 E3 F | B,2 B,E EA,DD | C2 ^C2 D3 E | %95
w: * * stra,|qui con- so- la- tur|nos in o- ~mni tri- bu-|la- ti- o- ne|no- stra, in o- mni tri- bu-|la- ti- o- ne|
 (A,AGF G4- | GBAG F2 G>A | F4) E2 z G | FFFF F2 z G | FFFF F4 | =F4 (E4- | E4 ^FG A2- | %102
w: no\- * * * *||* stra, qui|con- so- la- tur nos in|o- mni tri- bu- la-|ti- o\-||
 A2[Q:1/4=93] G4)[Q:1/4=90] G2 |[Q:1/4=88] (F2[Q:1/4=86] G>[Q:1/4=86]A[Q:1/4=83] F4) | %104
w: * * ne|no\- * * *|
[Q:1/4=10][Q:1/4=82] !fermata!E8 |] %105
w: etra.|
V:2
 z6 | z2 (BA) (GF) | G2 ^D4 | (E2 F>GA>B | G2) F4 | z2 z2 G2 | G2 F2 F2 | G4 G2 | F4 z2 | %9
w: |Be\- * ne\- *|di- ctus|De\- * * * *|* us|et|Pa- ter o-|mni- po-|tens,|
 z2 z2 G2 | (AGFED^C | B,3 ^C) DE | ^C4- CB, | B,4 z2 | z6 | z2 (BA) (GF) | G2 ^D4 | E2 B,2 z2 | %18
w: et|Pa\- * * * * *|* * ter o-|mni\- * po-|tens,||be\- * ne\- *|di- ctus|De- us|
 z2 E2 (C>B, | A,2 D>C B,2 | C2 A>G A2- | A2) G2 F2 | G2 F4 | E4 z2 | z6 | z6 | z6 | D6 | D6 | %29
w: et Pa\- *|||* ter o-|mni- po-|tens,||||Pa-|ter|
 E2 D2 C2 | B,2 C4 | D2 G,4 | z2 z2 F2 | (E2 D2 ^C2 | D2 A,2 A2 | A2 G2 G2 | G2 F4 | F3 D EF | %38
w: mi- se- ri-|cor- di-|a- rum|et|De\- * *|* us, et|De- us to-|ti- us|con- so- la- ti-|
 G2 FEED | D3 EEF | F2 EDD^C | ^C4- CB,/C/ | D4 ^C2) | D4 z2 | z6 | z6 | D6 | ^D6 | E2 F2 G2 | %49
w: o\- * * * *|||||jus,|||Pa-|ter|mi- se- ri-|
 A2 G4 | F2 B,4 | z6 | z6 | z6 | z6 | z2 z2 E2 | (D2 C2 B,2 | ^C4 ^D2 | E2) E2 =C2 | C2 B,2 E2 | %60
w: cor- di-|a- rum|||||et|De\- * *||* us to-|ti- us, et|
 E2 D2 D2 | D2 C2 z2 | z2 =FE DC | B,6 | A,4 z2 | z2 A2 F2 | D2 B,2 z2 | E2 F2 G2 | A4 G2 | G2 F4 | %70
w: De- us to-|ti- us|con- so- la- ti-|o-|nis,|Pa- ter,|Pa- ter|mi- se- ri-|cor- di-|a- rum|
 F2 G2 A2 | D2 D2 D2 | D2 C2 C2 | C2 B,4 | (BA) (GF) ED | (E6- | E2 D2 C2 | B,2 B>A B2 | A6) || %79
w: et De- us,|De- us to-|ti- us, to-|ti- us|con\- * so\- * la- ti-|o\-||||
[M:4/4] G2 z2 z2 z D | CB,CA, B,2 z E | EA,DD ^C3 ^D | EB, (E4 ^D2 |[M:4/4] ^C4 B,4 | %84
w: nis, qui|con- so- ~la- tur nos in|o- mni tri- bu- la- ti-|o- ne no\- *|* stra,|
 z2 z F E^DE^C | ^D2 z D EEEE | E2 E2 E2 ^D2 | z2 z F FB,EE | D3 D CB,) (CD) | B,4 A,2 z A | %90
w: qui con- so- la- tur|nos in o- mni tri- bu-|la- ti- o- ne,|in o- mni tri- bu-|la- ti- o\- * ne *|no- stra, qui|
 GFGE F2 z B | AGAF G2 z2 | z2 z B BEAA | G2 ^G2 A3 B | E2 EA ADGG | F4- FFE^D | (EG=FE ^D2 E2- | %97
w: con- so- la- tur nos, qui|con- so- la- tur nos|in o- mni tri- bu-|la- ti- o- ne|no- stra, in o- mni tri- bu-|la\- * ti- o- ne|no\- * * * * *|
 E2 ^D2) E2 z E | EEEE ^D2 z E | EEEE ^D4 | =D4 (C4 | ^C4 ^D4 | EB, E4) E2 | (^D2 E4 D2) | %104
w: * * stra, qui|con- so- la- tur nos in|o- mni tri- bu- la-|ti- o\-||* * * ne|no\- * *|
 !fermata!E8 |] %105
w: stra.|
V:3
"^andante" [B,EG]2 [B,FB]4 | [B,EG]2 [^DF]4 | [B,EG]2 [B,^DF]4 | [B,EG]2 [B,FB]4 | [B,EG]2 BAGF | %5
 [B,EG]2 [DGd]4 | [EGA]2 [DFA]4 | [DGB]4 [EGA]2 | [DFA]4 dc | BA G4- | G2 F4 | [DF]2 [FB]4- | %12
 B2 ^A4 | [B,^DB]2 F2 B2- | [B,EB]2 [B,FA]4 | [B,EG]2 [B,^DF]4 | [B,EG]2 F2 B2- | B B2 AGF | %18
 [B,EG]2 [CA]>[DB] [EAc]2 | [A,DF]2 [B,G]>[CA] [DB]2 | [CA]6- | A2 G2 [EF]2 | G2 F4 | [G,B,E]4 e2 | %24
 d2 c3 B | A2 G2 F2 | G3 [CF][DG][EA] | [A,F]2 [B,G]2 [DB]2 | A2 BA G2 | A2 B2 c2 | d2 c4 | %31
 B4 [B,G]2 | [DA]2 B^c d2 | B4 A2- | A4 [FA]2- | [FA]2 [EG]2 B2- | B^cde f2- | fe d2 ^c2 | %38
 [GB]2 [FA]2 [EG]2 | [DF-][Fd] [F^c]2 [GB]2 | A2 [EG]2 [DF]2 | E[EB]- [EA]2 G2 | F2 E2 ^C2 | %43
 [F,D]2 feed | d2 aggf | feeg[Af][Ge] | d2 A2 F2 | F4- F=c | [EB]4- [EB][Ge] | [FA^d]2 [GBe]4 | %50
 [FB^d]6 | [GBe]6 | [^G=f]6 | [Ae]2 [^Gd]2 [Ac]2 | B2 A4 | [B,E^G]4- [CEA]2 | %56
 [DGB]2 [EAc]2 [E^Gd]2 | [E^c]4 =cB | [E^GB]4 [CA]2- | [CA]2 [B,^G]2 [B,G]2 | [A,A]4 [B,E]2- | %61
 E4 [CE^G]2 | A6- | AB ^G4 | A2 E2 x2 | [A,D^F]6 | [G,DG]3 [DF][EG][FA] | [GB]6 | c2 B2 x2 | %69
 [GB]2 [FA]4 | A2 B2 c2 | [DGd]4 x2 | E3 FGA | GABc[Bd][Ac] | [GB]6 | [GA]6 | [FA]6- | A2 G2 B2 | %78
 A4 c2 ||[M:4/4]"^allegro" Bcde A2 z d | G2 z [CA] [B,D]2 z [G,E] | [F,A,]3 [^G,D] [A,^C]3 [CA] | %82
 A2 G2 F2 B2- |[M:4/4] B2 ^A2 [B,B]3 [DB] | [EA]2 z [A,F] [B,G]2 z [EG] | [^DF]2 BA GABG | %86
 [EG^c][EGc][EGc][EGc] [EG^A]2 [^DFB][DB] | B2 A2 GABc | F2 ^G2 E2 A2- | A2 ^G2 A2 z A | %90
 =G2 z A F2 z E | E2 z B GAB=c | FGAB B2 A2 | G2 ^G2 A3 B | cB A4 G2 | F2 BA G2- [EG]2 | %96
 [EG]2 [FA][GB] [^DF]2 G2 | FGAB [B,EG]2 [EG]2- | [EF^c]4 B2 BG | [EF^c]4 [^DFB][DFB][DFB][DFB] | %100
 [=D=FB][DFB][DFB][DFB] [CEc][CEc][CEc][CEc] | [^CE_B][CEB][CEB][CEB] [=C^DA][CDA][B,DA][A,DA] | %102
 [B,EA][B,EA][B,EG][B,EG] [^CEG][CEG][CEG][CEG] | [^DF]2 [EG]2 [EF]2- [DF]2 | !fermata![^G,B,E]8 |] %105
V:4
 x4 x2 | x4 x2 | x4 x2 | x4 x2 | x2 [B,F]2- [B,^D]2 | x4 x2 | x6 | x6 | z4 [DF]2- | [DG]2 ED^CB, | %10
 [^CE]6 | B,3 ^C D2 | [^C^G]2 F2 E2 | z2 [B,=D]4 | x6 | x6 | x2 [B,^D]4 | [B,E]2 [B,F]4 | %18
 x2 E2 x2 | x2 D2 G2- | G2 F>E^D>E | [B,^D]2 E2 ^C2 | [B,E]4- [B,^D]2 | x4 G2- | G2 D4- | %25
 D2 A,2 C2 | B,3 x3 | x6 | F4 D2 | EF G2 A2 | BG E2 F2 | G4 x2 | x2 G2 F2 | E2 D2 ^C2 | D2 F2 D^C | %35
 B,4 EF | G2 F2 [FB]2 | [FA]4- [EA]2 | D2 ^C2 x2 | D6- | D2 B,4 | ^C6 | [A,D]4- A,G, | x2 F4- | %44
 A2 [Ae]2- [Ad]2 | [A^c]2 B2 c2 | F4 D2 | ^C6 | z6 | z6 | z6 | z6 | B2 c2 d2 | E6 | E4 [A,D]2 | %55
 x6 | x6 | A2 ^G2 [^DF]2 | x4 E2- | E4 E2- | E2 D4- | [B,D]2 [A,C]4 | [A,C]4 [B,D][CE] | %63
 [D=F]3 [CE] [B,D]2 | [A,C]6 | x6 | x6 | x6 | [EA]4- [EG]2 | D6 | [FA]4- [EA]2 | x4 D2- | D2 C4 | %73
 [CE]2 [B,D]4 | D6 | E6- | E2 D2 C2 | [B,D]4 [DG]2- | [EG]2 [DF]4 ||[M:4/4] [DG]2 z G F2 x F | %80
 E2 x2 x4 | x8 | [B,E]6 [DF]2 |[M:4/4] [^CG]2 FE DEF x | x8 | x2 [B,F]2 [B,E]4 | x8 | E3 F B,2 E2 | %88
 D4 C3 =F | ED/C/ B,D ^CDEC | D^CDE A,2 x B, | ^CDEF B,2 E2 | D2 ^D2 E3 F | [B,E]4 [A,E]2 D2 | %94
 CDE^C D3 E | A,2 B,6- | B,6 E2- | E2 [B,^D]2 x4 | x4 [^DF]2 [B,E]2 | x8 | x8 | x8 | x8 | %103
 x2 B,4- B,A, | x8 |] %105
V:5
 E,2 ^D,4 | E,2 B,4 | E,2 B,,4 | E,2 ^D,4 | E,2 ^D,2 B,,2 | E,2 B,,4 | C,2 D,4 | G,2 G,2 ^C,2 | %8
w: ||||||6 *|* * 6|
w: ||||||5 *|* * 5|
w: ||||||||
 D,2 DCB,A, | G,F, E,4 | A,,2 ^A,,4 | B,,^C, D,4 | E,2 F,2 F,,2 | B,,2 B,A,G,F, | G,2 ^D,4 | %15
w: ||||6 * *||6 *|
w: ||||5 * *|||
w: |||||||
 E,2 B,4 | E,2 B,A,G,F, | G,2 ^D,4 | E,2 C,>B,, A,,2 | D,2 B,,>A,, G,,2 | A,,6 | B,,2 C,2 ^A,,2 | %22
w: |||||7~~~~6|* * 6|
w: ||||||* * 5|
w: |||||||
 B,,6 | E,2 D,2 C,2 | B,,2 A,,2 G,,2 | F,,2 E,,2 D,,2 | G,,3 A,,B,,C, | D,2 G,2 G,,2 | %28
w: 4~~~~~3||||||
w: ||||||
w: ||||||
 D,3 C, B,,2 | C,2 B,,2 A,,2 | G,,2 A,,4 | G,,2 G,4 | F,2 E,2 D,2 | G,4 A,2 | D,4 D,2 | %35
w: ||* 7~~~6|||6~~~~5 7|4~~~~3 *|
w: |||||||
w: |||||||
 E,3 F,G,A, | B,3 ^C D2 | D,6 | G,,2 A,,4 | B,,2 A,,2 G,,2 | F,,2 G,,4 | A,,6 | D,2 A,2 A,,2 | %43
w: 9~~~4 * * *|6~~~5 * 6||||* 6|||
w: 8~~~3 * * *|4~~~3 * *|||||||
w: ||||||||
 D,2 D^CCB, | B,2 ^C2 D2 | A,2 G,2 A,2 | D,2 D,2 =C,2 | B,,2 B,2 A,2 | G,2 F,2 E,2 | F,2 E,F,G,A, | %50
w: ||||||6 * * * *|
w: |||||||
w: |||||||
 B,3 A,G,F, | E,4 E2 | D2 C2 B,2 | C2 B,2 A,2 | G,2 =F,4 | E,6 | E,6 | A,4 A,2 | E,4 A,,2 | %59
w: ||4 * *|6 * *|* 7~~6||7|* 6||
w: |||||||* 4||
w: |||||||* 2||
 E,4 E,2 | F,4 ^G,2 | A,,4 E,2 | =F,6 | D,2 E,2 E,,2 | A,,6- | D,6 | B,,2 B,A,G,F, | E,6 | %68
w: 6~~~5 *|7~~~~6 5|4~~~~3 6||6 * *|||6 * * * *||
w: 4~~~ *||||5 * *|||||
w: |||||||||
 C,2 ^C,4 | D,4 D,,2 | D,4 C,2 | B,,6 | C,3 D,E,F, | G,4 G,,2 | G,6 | C,2 ^C,4 | D,6 | G,,6 | %78
w: 6 7~~~7|6 *|||9~~~8 * * *|6~~5 *|||9~~~8~~~7|9~~~8|
w: * 6~~~5|4 *|||10 * * *|4~~3 *|||||
w: ||||||||||
 C,2 D,2 D,,2 ||[M:4/4] G,,A,,B,,C, D,C,D,B,, | C,D,E,F, [G,,G,]A,, B,,^C, | D,3 B,,A,,G,,F,,F, | %82
w: 6 * *||* * * * 9 * 6 *|* 6 * * * 6|
w: 5 * *||||
w: ||||
 E,F, G,A, B,B,, D,B,, |[M:4/4] E,^C,F,F,, B,,C,D,B,, | ^C,B,,C,^D, E,F,G,A, | %85
w: 4 * 6 * 4 * 6 *|6 * * * * * * *|6 * * * * * * *|
w: |5 * * * * * * *||
w: |||
 B,B,,^D,B,, E,F,G,E, | ^A,,4 B,,^C, ^D,B,, | ^C,B,,C,^D, E,F,G,A, | B,A,B,B,, A,G, =F,E,/D,/ | %89
w: |7 6 * 6 *|7 * 6 * 9 * 6 *|* * 6 * * * * * *|
w: |5 4 * * *||5 * * * * * * * *|
w: ||||
 E,2 E,,2 A,,B,,^C,A,, | B,,A,,B,,^C, ^D,E,F,^G, | A,,B,,^C,^D, E,F,G,A, | B,2 B,,2 ^C,B,,C,^D, | %93
w: 4 * * * * *|6 * * * * * * *|* * * * 9 * 6 *|* * 7 * 6 *|
w: ||||
w: ||||
 E,2 D,2 C,2 F,,^G,, | A,,B,,^C,A,, B,,A,,B,,C, | D,2 ^D,2 E,4- | E,4 B,2 ^A,2 | %97
w: * 4 6 6 5|* * 6 * 7 * 6 *|* * 9~~~~~~~~8|* * 7|
w: |||* * 5|
w: ||||
 B,2 B,,2 E,D,C,B,, | ^A,,4 B,,B,G,E, | ^A,,4 B,,B,,B,,B,, | ^G,,G,,G,,G,, A,,A,,A,,A,, | %101
w: 4 * * * * *|6 * * 6 *|6 * * * *|7 * * * * * * *|
w: |5 * * * *|5 * * * *|5 * * * * * * *|
w: ||||
 G,,G,,G,,G,, F,,F,,F,,F,, | E,,3 E, ^A,,A,,A,,A,, | B,,8 | !fermata!E,,8 |] %105
w: 6 * * * 6 * * *|4~~~~~3 * 7 * * *|5~~~~~6~~~~~5||
w: 4 * * * * * * *|* * 5 * * *|~~~~~~~4~~~~~4||
w: ||||

